!!!OTL: Yujia fanshenyao
!!!ARE: Asia, China, Fujian Ningde
!! II, 567
!!!SCT: C1993
!!!YEM: Copyright 1995, estate of Helmut Schaffrath.
**kern
*ICvox
*Ivox
*M4/4
*k[]
*C:
{8dd
8dd
8dd
8ee
16dd
16ee
8dd
8dd
8cc}
=1
{8ee
8cc
8ee
8ee
8dd
16ee
16dd
8a
8g}
=2
{8a
8dd
8a
8cc
8cc
16a
16g
8a
8cc}
=3
{8dd
8cc
8dd
8dd
8dd
16cc
16a
8a
8g}
=4
{8dd
16ee
16dd
8ee
8ee
8dd
8ee
8dd
8cc}
=5
{8dd
16ee
16dd
16cc
16cc
8dd
8dd
8cc
8a
8g}
=6
{8cc
8cc
8dd
8cc
8g
8a
16g
16a
8cc}
=7
{8g
8g
8cc
8a
8a
8g
8e
8d}
==
!!!AGN: Xiaodiao, YÅge
!!!AMT: simple quadruple
!!!AIN: vox
!!!EED: Helmut Schaffrath
!!!EEV: 1.0
*-
